docs/wing.svg

<svg width="56" height="30" xmlns="http://www.w3.org/2000/svg" color="text" class="sc-bdnxRM ePFVAE mobile-icon">
 <defs>
  <linearGradient y2="0.50015" x2="1.00016" y1="0.50015" x1="0.00004" id="paint3_linear">
   <stop stop-color="#4CACF7"/>
   <stop stop-color="#2C72DB" offset="1"/>
  </linearGradient>
  <linearGradient y2="0.00017" x2="0.50014" y1="1.00035" x1="0.50014" id="paint4_linear">
   <stop stop-color="#4EACF7"/>
   <stop stop-color="#2669D7" offset="1"/>
  </linearGradient>
  <linearGradient y2="0.00017" x2="0.50012" y1="1.00035" x1="0.50012" id="paint5_linear">
   <stop stop-color="#4EABF7"/>
   <stop stop-color="#276AD8" offset="1"/>
  </linearGradient>
 </defs>
 <g>
  <title>Layer 1</title>
  <path id="svg_1" fill="url(#paint3_linear)" d="m20.5759,23.49888c-1.5446,0 -2.8837,-0.9028 -3.5122,-2.2138l-4.0913,-8.5705l-3.32322,-6.96685l4.53912,0c1.4747,0 2.8138,0.84922 3.4505,2.18076l2.9535,6.18359l3.4505,-7.26366l-0.2711,-0.57302l-0.2834,-0.59363c-1.6513,-3.46282 -5.1347,-5.66419 -8.9591,-5.66419l-14.5292,0l2.98636,6.25782l8.15394,17.09158c0.1479,0.371 0.3204,0.7296 0.5135,1.0759c1.1953,2.1684 3.1465,3.8462 5.5003,4.6872c0.4847,-0.1855 1.0475,-0.4411 1.639,-0.7956c0.0698,-0.0413 0.1397,-0.0825 0.2095,-0.1278c0.0698,-0.0454 0.1438,-0.0907 0.2136,-0.1402c0.1314,-0.0866 0.267,-0.1814 0.3985,-0.2803c0.1396,-0.1031 0.2711,-0.2061 0.3984,-0.3092c1.5445,-1.2615 2.3948,-2.7084 2.8262,-3.5947c0.4025,-0.8451 0.8092,-1.6902 1.2118,-2.5353c-0.6368,1.2779 -1.9554,2.1519 -3.4752,2.1519z"/>
  <path id="svg_2" fill="url(#paint4_linear)" d="m41.1514,0.00412l-11.2348,23.54306l-0.3492,0.7338c-0.0287,0.0536 -0.0616,0.1113 -0.0903,0.1649c-0.0206,0.0413 -0.0452,0.0825 -0.0658,0.1196c-0.0041,0.0041 -0.0041,0.0124 -0.0082,0.0165c-0.0493,0.0824 -0.0986,0.1649 -0.1479,0.2473c-0.0082,0.0124 -0.0123,0.0248 -0.0205,0.0371c-0.0493,0.0783 -0.0986,0.1526 -0.1479,0.2309c-0.0164,0.0288 -0.0369,0.0536 -0.0534,0.0824c-0.0493,0.0701 -0.0945,0.1402 -0.1437,0.2103c-0.0617,0.0907 -0.1274,0.1772 -0.1931,0.2638c-0.1808,0.2432 -0.3861,0.4947 -0.6203,0.7503c-0.0739,0.0783 -0.1479,0.1566 -0.2218,0.235c-0.0781,0.0783 -0.152,0.1525 -0.23,0.2267c-0.0781,0.0742 -0.1561,0.1484 -0.2383,0.2226c-0.0041,0.0041 -0.0123,0.0124 -0.0205,0.0165c-0.1315,0.1154 -0.2588,0.2267 -0.3944,0.3339c-0.0616,0.0495 -0.1191,0.0948 -0.1766,0.1402c-0.0164,0.0123 -0.0288,0.0206 -0.0452,0.0329c-0.0205,0.0165 -0.0411,0.033 -0.0616,0.0495c-0.0493,0.033 -0.0945,0.0701 -0.1438,0.1072c-0.0657,0.0454 -0.1273,0.0907 -0.1931,0.1319c-0.0657,0.0454 -0.1314,0.0907 -0.2012,0.1319c-0.4642,0.3051 -0.9325,0.5524 -1.3844,0.7544c-0.0821,0.0371 -0.1602,0.0701 -0.2423,0.1031c-0.2383,0.0989 -0.4765,0.1896 -0.7025,0.268c-0.0451,0.0164 -0.0903,0.0329 -0.1355,0.0453c-0.0657,0.0206 -0.1356,0.0454 -0.2013,0.0618c-0.0657,0.0207 -0.1314,0.0371 -0.1972,0.0578c-0.2916,0.0824 -0.5668,0.1442 -0.8215,0.1978c-0.0986,0.0206 -0.1931,0.0371 -0.2876,0.0536c-0.0534,0.0083 -0.1027,0.0165 -0.1561,0.0248c-0.1273,0.0206 -0.2505,0.0371 -0.3655,0.0494c-0.0083,0 -0.0165,0 -0.0288,0.0041c-0.0822,0.0083 -0.1602,0.0165 -0.23,0.0248c-0.037,0.0041 -0.0699,0.0041 -0.1068,0.0082c-0.0534,0.0041 -0.1027,0.0083 -0.1561,0.0124c-0.0206,0 -0.037,0.0041 -0.0575,0.0041c-0.037,0.0041 -0.0781,0.0041 -0.111,0.0041c-0.1027,0.0042 -0.1848,0.0042 -0.2423,0.0083c-0.1972,0.0041 -0.419,0 -0.6614,-0.0124c-0.0164,0 -0.0328,0 -0.0534,-0.0041c-0.0903,-0.0041 -0.1766,-0.0124 -0.2629,-0.0165c-0.1314,-0.0124 -0.2711,-0.0247 -0.4149,-0.0412c-0.0492,-0.0041 -0.1026,-0.0124 -0.156,-0.0206c-0.1808,-0.0248 -0.3697,-0.0577 -0.5669,-0.0949c-0.304,-0.0618 -0.6244,-0.136 -0.9571,-0.2349c-0.0822,-0.0248 -0.1643,-0.0495 -0.2506,-0.0784c-0.0822,-0.0288 -0.1725,-0.0577 -0.2547,-0.0865l0.0041,0c0.4847,-0.1855 1.0475,-0.4411 1.639,-0.7956c0.0699,-0.0413 0.1397,-0.0825 0.2095,-0.1278c0.0698,-0.0454 0.1438,-0.0907 0.2136,-0.1402c0.1315,-0.0866 0.267,-0.1814 0.3985,-0.2803c0.1396,-0.1031 0.2711,-0.2061 0.3984,-0.3092c1.5446,-1.2615 2.3949,-2.7084 2.8262,-3.5948c0.4025,-0.8451 0.8092,-1.6901 1.2118,-2.5352c0.2423,-0.5112 0.4888,-1.0183 0.7312,-1.5295l3.3889,-7.0988l3.356,-7.03692c1.6514,-3.46283 5.1306,-5.66832 8.955,-5.67656l0.6737,0.00412z"/>
  <path id="svg_3" fill="url(#paint5_linear)" d="m55.5987,0.00412l-11.2348,23.54306l-0.3492,0.7338c-0.0288,0.0536 -0.0616,0.1113 -0.0904,0.1649c-0.0205,0.0413 -0.0452,0.0825 -0.0657,0.1196c-0.0041,0.0041 -0.0041,0.0124 -0.0082,0.0165c-0.0493,0.0824 -0.0986,0.1649 -0.1479,0.2473c-0.0082,0.0124 -0.0123,0.0248 -0.0205,0.0371c-0.0493,0.0783 -0.0986,0.1526 -0.1479,0.2309c-0.0164,0.0288 -0.037,0.0536 -0.0534,0.0824c-0.0493,0.0701 -0.0945,0.1402 -0.1438,0.2103c-0.0616,0.0907 -0.1273,0.1772 -0.193,0.2638c-0.1808,0.2432 -0.3862,0.4947 -0.6203,0.7503c-0.074,0.0783 -0.1479,0.1566 -0.2218,0.235c-0.0781,0.0783 -0.152,0.1525 -0.2301,0.2267c-0.078,0.0742 -0.1561,0.1484 -0.2382,0.2226c-0.0041,0.0041 -0.0124,0.0124 -0.0206,0.0165c-0.1314,0.1154 -0.2588,0.2267 -0.3943,0.3339c-0.0616,0.0495 -0.1191,0.0948 -0.1767,0.1402c-0.0164,0.0123 -0.0287,0.0206 -0.0451,0.0329c-0.0206,0.0165 -0.0411,0.033 -0.0617,0.0495c-0.0492,0.033 -0.0944,0.0701 -0.1437,0.1072c-0.0658,0.0454 -0.1274,0.0907 -0.1931,0.1319c-0.0657,0.0454 -0.1314,0.0907 -0.2013,0.1319c-0.4641,0.3051 -0.9324,0.5524 -1.3843,0.7544c-0.0821,0.0371 -0.1602,0.0701 -0.2424,0.1031c-0.2382,0.0989 -0.4765,0.1896 -0.7024,0.268c-0.0452,0.0164 -0.0904,0.0329 -0.1355,0.0453c-0.0658,0.0206 -0.1356,0.0454 -0.2013,0.0618c-0.0657,0.0207 -0.1315,0.0371 -0.1972,0.0578c-0.2916,0.0824 -0.5669,0.1442 -0.8216,0.1978c-0.0985,0.0206 -0.193,0.0371 -0.2875,0.0536c-0.0534,0.0083 -0.1027,0.0165 -0.1561,0.0248c-0.1273,0.0206 -0.2506,0.0371 -0.3656,0.0494c-0.0082,0 -0.0164,0 -0.0287,0.0041c-0.0822,0.0083 -0.1602,0.0165 -0.2301,0.0248c-0.0369,0.0041 -0.0698,0.0041 -0.1068,0.0082c-0.0534,0.0041 -0.1027,0.0083 -0.1561,0.0124c-0.0205,0 -0.0369,0.0041 -0.0575,0.0041c-0.0369,0.0041 -0.078,0.0041 -0.1109,0.0041c-0.1027,0.0042 -0.1848,0.0042 -0.2423,0.0083c-0.1972,0.0041 -0.419,0 -0.6614,-0.0124c-0.0164,0 -0.0329,0 -0.0534,-0.0041c-0.0904,-0.0041 -0.1766,-0.0124 -0.2629,-0.0165c-0.1315,-0.0124 -0.2711,-0.0247 -0.4149,-0.0412c-0.0493,-0.0041 -0.1027,-0.0124 -0.1561,-0.0206c-0.1807,-0.0248 -0.3697,-0.0577 -0.5669,-0.0949c-0.3039,-0.0618 -0.6243,-0.136 -0.9571,-0.2349c-0.0821,-0.0248 -0.1643,-0.0495 -0.2505,-0.0784c-0.0822,-0.0288 -0.1726,-0.0577 -0.2547,-0.0865l0.0041,0c0.4847,-0.1855 1.0475,-0.4411 1.639,-0.7956c0.0698,-0.0413 0.1396,-0.0825 0.2095,-0.1278c0.0698,-0.0454 0.1438,-0.0907 0.2136,-0.1402c0.1314,-0.0866 0.267,-0.1814 0.3984,-0.2803c0.1397,-0.1031 0.2712,-0.2061 0.3985,-0.3092c1.5445,-1.2615 2.3948,-2.7084 2.8262,-3.5948c0.4025,-0.8451 0.8092,-1.6901 1.2117,-2.5352c0.2424,-0.5112 0.4889,-1.0183 0.7312,-1.5295l3.389,-7.0988l3.356,-7.03692c1.6513,-3.46283 5.1306,-5.66832 8.955,-5.67656l0.6737,0.00412z"/>
 </g>
</svg>

<svg viewBox="0 0 70 32" class="sc-bdnxRM ePFVAE mobile-icon" color="text" width="20px" xmlns="http://www.w3.org/2000/svg"><path d="M20.5759 23.5565C19.0313 23.5565 17.6922 22.6537 17.0637 21.3427L12.9724 12.7722L9.64918 5.80535H14.1883C15.663 5.80535 17.0021 6.65457 17.6388 7.98611L20.5923 14.1697L24.0428 6.90604L23.7717 6.33302L23.4883 5.73939C21.837 2.27657 18.3536 0.0751953 14.5292 0.0751953H0L2.98636 6.33302L11.1403 23.4246C11.2882 23.7956 11.4607 24.1542 11.6538 24.5005C12.8491 26.6689 14.8003 28.3467 17.1541 29.1877C17.6388 29.0022 18.2016 28.7466 18.7931 28.3921C18.8629 28.3508 18.9328 28.3096 19.0026 28.2643C19.0724 28.2189 19.1464 28.1736 19.2162 28.1241C19.3476 28.0375 19.4832 27.9427 19.6147 27.8438C19.7543 27.7407 19.8858 27.6377 20.0131 27.5346C21.5576 26.2731 22.4079 24.8262 22.8393 23.9399C23.2418 23.0948 23.6485 22.2497 24.0511 21.4046C23.4143 22.6825 22.0957 23.5565 20.5759 23.5565Z" fill="url(#paint3_linear)"></path><path d="M41.1514 0.0617389L29.9166 23.6048L29.5674 24.3386C29.5387 24.3922 29.5058 24.4499 29.4771 24.5035C29.4565 24.5448 29.4319 24.586 29.4113 24.6231C29.4072 24.6272 29.4072 24.6355 29.4031 24.6396C29.3538 24.722 29.3045 24.8045 29.2552 24.8869C29.247 24.8993 29.2429 24.9117 29.2347 24.924C29.1854 25.0023 29.1361 25.0766 29.0868 25.1549C29.0704 25.1837 29.0499 25.2085 29.0334 25.2373C28.9841 25.3074 28.9389 25.3775 28.8897 25.4476C28.828 25.5383 28.7623 25.6248 28.6966 25.7114C28.5158 25.9546 28.3105 26.2061 28.0763 26.4617C28.0024 26.54 27.9284 26.6183 27.8545 26.6967C27.7764 26.775 27.7025 26.8492 27.6245 26.9234C27.5464 26.9976 27.4684 27.0718 27.3862 27.146C27.3821 27.1501 27.3739 27.1584 27.3657 27.1625C27.2342 27.2779 27.1069 27.3892 26.9713 27.4964C26.9097 27.5459 26.8522 27.5912 26.7947 27.6366C26.7783 27.6489 26.7659 27.6572 26.7495 27.6695C26.729 27.686 26.7084 27.7025 26.6879 27.719C26.6386 27.752 26.5934 27.7891 26.5441 27.8262C26.4784 27.8716 26.4168 27.9169 26.351 27.9581C26.2853 28.0035 26.2196 28.0488 26.1498 28.09C25.6856 28.3951 25.2173 28.6424 24.7654 28.8444C24.6833 28.8815 24.6052 28.9145 24.5231 28.9475C24.2848 29.0464 24.0466 29.1371 23.8206 29.2155C23.7755 29.2319 23.7303 29.2484 23.6851 29.2608C23.6194 29.2814 23.5495 29.3062 23.4838 29.3226C23.4181 29.3433 23.3524 29.3597 23.2866 29.3804C22.995 29.4628 22.7198 29.5246 22.4651 29.5782C22.3665 29.5988 22.272 29.6153 22.1775 29.6318C22.1241 29.6401 22.0748 29.6483 22.0214 29.6566C21.8941 29.6772 21.7709 29.6937 21.6559 29.706C21.6476 29.706 21.6394 29.706 21.6271 29.7101C21.5449 29.7184 21.4669 29.7266 21.3971 29.7349C21.3601 29.739 21.3272 29.739 21.2903 29.7431C21.2369 29.7472 21.1876 29.7514 21.1342 29.7555C21.1136 29.7555 21.0972 29.7596 21.0767 29.7596C21.0397 29.7637 20.9986 29.7637 20.9657 29.7637C20.863 29.7679 20.7809 29.7679 20.7234 29.772C20.5262 29.7761 20.3044 29.772 20.062 29.7596C20.0456 29.7596 20.0292 29.7596 20.0086 29.7555C19.9183 29.7514 19.832 29.7431 19.7457 29.739C19.6143 29.7266 19.4746 29.7143 19.3308 29.6978C19.2816 29.6937 19.2282 29.6854 19.1748 29.6772C18.994 29.6524 18.8051 29.6195 18.6079 29.5823C18.3039 29.5205 17.9835 29.4463 17.6508 29.3474C17.5686 29.3226 17.4865 29.2979 17.4002 29.269C17.318 29.2402 17.2277 29.2113 17.1455 29.1825H17.1496C17.6343 28.997 18.1971 28.7414 18.7886 28.3869C18.8585 28.3456 18.9283 28.3044 18.9981 28.2591C19.0679 28.2137 19.1419 28.1684 19.2117 28.1189C19.3432 28.0323 19.4787 27.9375 19.6102 27.8386C19.7498 27.7355 19.8813 27.6325 20.0086 27.5294C21.5532 26.2679 22.4035 24.821 22.8348 23.9346C23.2373 23.0895 23.644 22.2445 24.0466 21.3994C24.2889 20.8882 24.5354 20.3811 24.7778 19.8699L28.1667 12.7711L31.5227 5.73418C33.1741 2.27135 36.6533 0.065862 40.4777 0.0576172L41.1514 0.0617389Z" fill="url(#paint4_linear)"></path><path d="M55.5987 0.0617389L44.3639 23.6048L44.0147 24.3386C43.9859 24.3922 43.9531 24.4499 43.9243 24.5035C43.9038 24.5448 43.8791 24.586 43.8586 24.6231C43.8545 24.6272 43.8545 24.6355 43.8504 24.6396C43.8011 24.722 43.7518 24.8045 43.7025 24.8869C43.6943 24.8993 43.6902 24.9117 43.682 24.924C43.6327 25.0023 43.5834 25.0766 43.5341 25.1549C43.5177 25.1837 43.4971 25.2085 43.4807 25.2373C43.4314 25.3074 43.3862 25.3775 43.3369 25.4476C43.2753 25.5383 43.2096 25.6248 43.1439 25.7114C42.9631 25.9546 42.7577 26.2061 42.5236 26.4617C42.4496 26.54 42.3757 26.6183 42.3018 26.6967C42.2237 26.775 42.1498 26.8492 42.0717 26.9234C41.9937 26.9976 41.9156 27.0718 41.8335 27.146C41.8294 27.1501 41.8211 27.1584 41.8129 27.1625C41.6815 27.2779 41.5541 27.3892 41.4186 27.4964C41.357 27.5459 41.2995 27.5912 41.2419 27.6366C41.2255 27.6489 41.2132 27.6572 41.1968 27.6695C41.1762 27.686 41.1557 27.7025 41.1351 27.719C41.0859 27.752 41.0407 27.7891 40.9914 27.8262C40.9256 27.8716 40.864 27.9169 40.7983 27.9581C40.7326 28.0035 40.6669 28.0488 40.597 28.09C40.1329 28.3951 39.6646 28.6424 39.2127 28.8444C39.1306 28.8815 39.0525 28.9145 38.9703 28.9475C38.7321 29.0464 38.4938 29.1371 38.2679 29.2155C38.2227 29.2319 38.1775 29.2484 38.1324 29.2608C38.0666 29.2814 37.9968 29.3062 37.9311 29.3226C37.8654 29.3433 37.7996 29.3597 37.7339 29.3804C37.4423 29.4628 37.167 29.5246 36.9123 29.5782C36.8138 29.5988 36.7193 29.6153 36.6248 29.6318C36.5714 29.6401 36.5221 29.6483 36.4687 29.6566C36.3414 29.6772 36.2181 29.6937 36.1031 29.706C36.0949 29.706 36.0867 29.706 36.0744 29.7101C35.9922 29.7184 35.9142 29.7266 35.8443 29.7349C35.8074 29.739 35.7745 29.739 35.7375 29.7431C35.6841 29.7472 35.6348 29.7514 35.5814 29.7555C35.5609 29.7555 35.5445 29.7596 35.5239 29.7596C35.487 29.7637 35.4459 29.7637 35.413 29.7637C35.3103 29.7679 35.2282 29.7679 35.1707 29.772C34.9735 29.7761 34.7517 29.772 34.5093 29.7596C34.4929 29.7596 34.4764 29.7596 34.4559 29.7555C34.3655 29.7514 34.2793 29.7431 34.193 29.739C34.0615 29.7266 33.9219 29.7143 33.7781 29.6978C33.7288 29.6937 33.6754 29.6854 33.622 29.6772C33.4413 29.6524 33.2523 29.6195 33.0551 29.5823C32.7512 29.5205 32.4308 29.4463 32.098 29.3474C32.0159 29.3226 31.9337 29.2979 31.8475 29.269C31.7653 29.2402 31.6749 29.2113 31.5928 29.1825H31.5969C32.0816 28.997 32.6444 28.7414 33.2359 28.3869C33.3057 28.3456 33.3755 28.3044 33.4454 28.2591C33.5152 28.2137 33.5892 28.1684 33.659 28.1189C33.7904 28.0323 33.926 27.9375 34.0574 27.8386C34.1971 27.7355 34.3286 27.6325 34.4559 27.5294C36.0004 26.2679 36.8507 24.821 37.2821 23.9346C37.6846 23.0895 38.0913 22.2445 38.4938 21.3994C38.7362 20.8882 38.9827 20.3811 39.225 19.8699L42.614 12.7711L45.97 5.73418C47.6213 2.27135 51.1006 0.065862 54.925 0.0576172L55.5987 0.0617389Z" fill="url(#paint5_linear)"></path><defs><linearGradient id="paint3_linear" x1="0.000944789" y1="14.6358" x2="24.0549" y2="14.6358" gradientUnits="userSpaceOnUse"><stop stop-color="#4CACF7"></stop><stop offset="1" stop-color="#2C72DB"></stop></linearGradient><linearGradient id="paint4_linear" x1="29.1518" y1="29.7839" x2="29.1518" y2="0.0628113" gradientUnits="userSpaceOnUse"><stop stop-color="#4EACF7"></stop><stop offset="1" stop-color="#2669D7"></stop></linearGradient><linearGradient id="paint5_linear" x1="43.5987" y1="29.7839" x2="43.5987" y2="0.0628113" gradientUnits="userSpaceOnUse"><stop stop-color="#4EABF7"></stop><stop offset="1" stop-color="#276AD8"></stop></linearGradient></defs></svg>
